X:98
T:Captain Ross
R:Reel
B:The Athole Collection
M:C|
L:1/8
K:A
c|E2 E>c BAFB|A/A/A cA eAcA|E2 E>c BAFf|ecdB A/A/A A:|
f|ef/g/ ac BA Ff|ef/g/ ae fe ae|f/g/a ec B>A Ff|efac A/A/A Af|
ef/g/ ac B>A Ff|ef/g/ ae feae|fg/a/ ec B>A Ff|ecdB A/A/A A||

